public/logo.svg

<?xml version="1.0" encoding="UTF-8" standalone="no"?>
<svg
   width="36mm"
   height="36mm"
   viewBox="0 0 36 36"
   version="1.1"
   id="svg138"
   sodipodi:docname="logo.svg"
   inkscape:version="1.2 (dc2aeda, 2022-05-15)"
   xmlns:inkscape="http://www.inkscape.org/namespaces/inkscape"
   xmlns:sodipodi="http://sodipodi.sourceforge.net/DTD/sodipodi-0.dtd"
   xmlns="http://www.w3.org/2000/svg"
   xmlns:svg="http://www.w3.org/2000/svg">
  <defs
     id="defs142" />
  <sodipodi:namedview
     id="namedview140"
     pagecolor="#ffffff"
     bordercolor="#000000"
     borderopacity="0.25"
     inkscape:showpageshadow="2"
     inkscape:pageopacity="0.0"
     inkscape:pagecheckerboard="0"
     inkscape:deskcolor="#d1d1d1"
     inkscape:document-units="mm"
     showgrid="false"
     inkscape:zoom="2.9949363"
     inkscape:cx="52.254868"
     inkscape:cy="82.639487"
     inkscape:window-width="1390"
     inkscape:window-height="1027"
     inkscape:window-x="0"
     inkscape:window-y="25"
     inkscape:window-maximized="0"
     inkscape:current-layer="svg138" />
  <circle
     style="fill:#ea580c;fill-opacity:1;stroke:none;stroke-width:1.5254;stroke-linecap:round;stroke-linejoin:round;stroke-miterlimit:4.1;stroke-opacity:1"
     id="path2480"
     cx="18"
     cy="18"
     r="18" />
  <path
     d="m 18.806637,10.125335 q -1.387651,0 -2.437659,1.79945 -1.050008,1.800239 -1.050008,4.275765 v 10.050414 h 2.662492 v 0.674498 H 6.2806965 V 26.250175 H 8.3444236 V 9.749825 H 6.2806965 V 9.074538 H 15.31897 v 3.600478 q 0.487532,-1.91305 1.875183,-2.925191 1.387652,-1.050008 3.150024,-1.050008 1.762372,0 2.850247,1.012141 1.124952,0.975064 1.124952,2.813169 0,1.799451 -0.825175,2.774514 -0.825175,0.975064 -2.549681,0.975064 -1.688218,0 -2.512604,-1.124952 -0.788098,-1.124952 -0.187755,-3.112157 h 1.349785 q 0.937986,-1.91305 -0.787309,-1.91305 z m 7.574889,17.174848 q -1.612485,0 -2.437661,-0.937197 -0.787309,-0.975064 -0.787309,-2.324849 0,-1.38844 0.825176,-2.325637 0.862254,-0.937197 2.399794,-0.937197 1.538328,0 2.437658,0.787308 0.90012,0.787309 0.90012,2.362715 0,1.575407 -0.862254,2.474738 -0.825174,0.900119 -2.475524,0.900119 z"
     id="path134"
     style="font-size:47.5376px;font-family:'Abril Fatface';-inkscape-font-specification:'Abril Fatface, Normal';fill:#0f222a;fill-opacity:1;stroke-width:0.552221;stroke-linecap:round;stroke-linejoin:round;stroke-miterlimit:4.1" />
</svg>

<?xml version="1.0" encoding="UTF-8" standalone="no"?>
<svg
   width="36mm"
   height="36mm"
   viewBox="0 0 36 36"
   version="1.1"
   id="svg138"
   sodipodi:docname="logo.svg"
   inkscape:version="1.2 (dc2aeda, 2022-05-15)"
   xmlns:inkscape="http://www.inkscape.org/namespaces/inkscape"
   xmlns:sodipodi="http://sodipodi.sourceforge.net/DTD/sodipodi-0.dtd"
   xmlns="http://www.w3.org/2000/svg"
   xmlns:svg="http://www.w3.org/2000/svg">
  <defs
     id="defs142">
    <inkscape:path-effect
       effect="fill_between_many"
       method="originald"
       linkedpaths="#path2480,0,1|"
       id="path-effect411" />
  </defs>
  <sodipodi:namedview
     id="namedview140"
     pagecolor="#ffffff"
     bordercolor="#000000"
     borderopacity="0.25"
     inkscape:showpageshadow="2"
     inkscape:pageopacity="0.0"
     inkscape:pagecheckerboard="0"
     inkscape:deskcolor="#d1d1d1"
     inkscape:document-units="mm"
     showgrid="false"
     inkscape:zoom="2.9949363"
     inkscape:cx="52.922661"
     inkscape:cy="83.307281"
     inkscape:window-width="1390"
     inkscape:window-height="1027"
     inkscape:window-x="0"
     inkscape:window-y="25"
     inkscape:window-maximized="0"
     inkscape:current-layer="svg138" />
  <path
     inkscape:original-d="M 0,0"
     inkscape:path-effect="#path-effect411"
     d="M 17.999935,0 A 18,18 0 0 0 0,17.999935 18,18 0 0 0 17.999935,35.99987 18,18 0 0 0 35.99987,17.999935 18,18 0 0 0 17.999935,0 Z"
     id="path413"
     class="UnoptimicedTransforms" />
  <path
     id="path2480"
     style="fill:#ea580c;fill-opacity:1;stroke:none;stroke-width:1.5254;stroke-linecap:round;stroke-linejoin:round;stroke-miterlimit:4.1;stroke-opacity:1"
     d="M 17.999935 0 A 18 18 0 0 0 0 17.999935 A 18 18 0 0 0 17.999935 35.99987 A 18 18 0 0 0 35.99987 17.999935 A 18 18 0 0 0 17.999935 0 z M 20.343978 8.6997274 C 21.518891 8.6997274 22.469201 9.0373087 23.19445 9.7120687 C 23.944417 10.362111 24.319446 11.299932 24.319446 12.525334 C 24.319446 13.724966 24.044289 14.6498 23.494173 15.299841 C 22.944057 15.949883 22.094128 16.274459 20.944458 16.274459 C 19.81898 16.274459 18.98154 15.899947 18.43195 15.14998 C 17.906552 14.400012 17.844136 13.36231 18.244364 12.037508 L 19.594153 12.037508 C 20.219476 10.762143 19.9568 10.124447 18.806604 10.124447 L 18.806604 10.12548 C 17.881504 10.12548 17.069031 10.725221 16.369027 11.924854 C 15.669022 13.125012 15.318962 14.550213 15.318962 16.200562 L 15.318962 26.251111 L 17.981331 26.251111 L 17.981331 26.925488 L 6.2807536 26.925488 L 6.2807536 26.250077 L 8.3441935 26.250077 L 8.3441935 9.7497925 L 6.2807536 9.7497925 L 6.2807536 9.0743815 L 15.318962 9.0743815 L 15.318962 12.675195 C 15.643983 11.39983 16.2692 10.424552 17.194299 9.7497925 C 18.1194 9.0497878 19.169064 8.6997274 20.343978 8.6997274 z M 26.381335 20.775476 C 27.406886 20.775476 28.219877 21.037637 28.81943 21.562508 C 29.419509 22.08738 29.719116 22.874885 29.719116 23.925155 C 29.719116 24.975425 29.431989 25.800386 28.857153 26.399939 C 28.307038 27.000018 27.481568 27.300142 26.381335 27.300142 C 25.306347 27.300142 24.493875 26.987529 23.943758 26.362732 C 23.418886 25.71269 23.156726 24.938182 23.156726 24.038326 C 23.156726 23.1127 23.431365 22.337167 23.981482 21.71237 C 24.556317 21.087572 25.35631 20.775476 26.381335 20.775476 z "
     class="UnoptimicedTransforms" />
</svg>
